findly-builder/apps/searchassist/src/assets/icons/file_type_image.svg

<svg width="30" height="39" viewBox="0 0 30 39" fill="none" xmlns="http://www.w3.org/2000/svg">
<path d="M30 10.8333V36.8333C30 38.0304 29.0411 39 27.8571 39H2.14286C0.958929 39 0 38.0304 0 36.8333V2.16667C0 0.969583 0.958929 0 2.14286 0H19.2857L30 10.8333Z" fill="#EF9AA3"/>
<path d="M19 0V8.8C19 10.0155 19.9845 11 21.2 11H30L19 0Z" fill="#DD3646"/>
<path d="M5.71733 25H7.0348V22.5426H8.42685C10.1065 22.5426 11.0085 21.5341 11.0085 20.1349C11.0085 18.7464 10.1172 17.7273 8.4446 17.7273H5.71733V25ZM7.0348 21.4595V18.8281H8.24219C9.2294 18.8281 9.66619 19.3608 9.66619 20.1349C9.66619 20.9091 9.2294 21.4595 8.24929 21.4595H7.0348ZM14.6174 25C16.8333 25 18.1472 23.6293 18.1472 21.3565C18.1472 19.0909 16.8333 17.7273 14.6671 17.7273H12.1529V25H14.6174ZM13.4703 23.8601V18.8672H14.5925C16.0698 18.8672 16.8404 19.6911 16.8404 21.3565C16.8404 23.0291 16.0698 23.8601 14.5534 23.8601H13.4703ZM19.399 25H20.7164V21.9105H23.7385V20.8061H20.7164V18.8317H24.0581V17.7273H19.399V25Z" fill="white"/>
</svg>

<svg width="30" height="39" fill="none" xmlns="http://www.w3.org/2000/svg"><path d="M30 10.833v26A2.154 2.154 0 0 1 27.857 39H2.143A2.154 2.154 0 0 1 0 36.833V2.167C0 .97.959 0 2.143 0h17.143L30 10.833Z" fill="#EF9AA3"/><path d="M19 0v8.8a2.2 2.2 0 0 0 2.2 2.2H30L19 0Z" fill="#DD3646"/><path d="M5.717 25h1.318v-2.457h1.392c1.68 0 2.582-1.009 2.582-2.408 0-1.389-.892-2.408-2.564-2.408H5.717V25Zm1.318-3.54v-2.632h1.207c.987 0 1.424.533 1.424 1.307 0 .774-.437 1.324-1.417 1.324H7.035ZM14.617 25c2.216 0 3.53-1.37 3.53-3.643 0-2.266-1.314-3.63-3.48-3.63h-2.514V25h2.464Zm-1.147-1.14v-4.993h1.122c1.478 0 2.248.824 2.248 2.49 0 1.672-.77 2.503-2.287 2.503H13.47ZM19.4 25h1.317v-3.09h3.022v-1.104h-3.022v-1.974h3.342v-1.105H19.4V25Z" fill="#fff"/></svg>
